!!!!SEGMENT: pl-cz--ii-16--003_szlagorski-walenty--talnce-walz-3.krn
!!!cenid: 18xx:1067
!!!COM: Szlagórski, Walenty
!!!COM-rismID:
!!!CDT: 1801-1863/07/16
!!!CNT: Polish
!!!GTL: Tańce
!!!OTL: Walz 3
!!!PDT:
!!!AGN: Secular; Waltz
!!!SMS-siglum: PL-CZ
!!!SMS-shelfmark: II-16
!!!SMS-shelfwork: 003 G
!!!SMS-variant:
!!!SMS-altvar:
!!!NIFC-rismSourceID: 300001296
!!!NIFC-islandoraID: pl-cz:32636
!!!URL-pdf-islandora: https://repozytorium.nifc.pl/islandora/object/pl-cz%3A32636/datastream/PDF/view
!!!URL-scan:
!!!ONB-nifc: UWAGA: zbiór zawiera Walce nr 1-5, Galop, Mazury nr 1-4
!!!AIN: 1 cbass 2 clars 1 clno 2 cor 1 flt 2 violn
!!!key: G
**kern	**kern	**kern	**kern	**dynam	**kern	**kern	**kern	**kern	**kern	**dynam	**kern
*group3	*group3	*group3	*group3	*	*group2	*group2	*group2	*group1	*group1	*	*group1
*part9	*part8	*part7	*part7	*part7/8/9	*part6	*part5	*part4	*part3	*part2	*part2	*part1
*staff10	*staff9	*staff8	*staff7	*	*staff6	*staff5	*staff4	*staff3	*staff2	*	*staff1
*I"Baſso	*I"Violino 2.do	*I"Violino 1mo	*I"Violino 1mo	*	*I"Clarino. in D.	*I"Corno 2do in D.	*I"Corno 1mo in D.	*I"Clarinetto 2do in A.	*I"Clarinetto 1mo in A.	*	*I"Flauto
*mI"Contrabasso	*mI"Violino II	*mI"Violino I	*mI"Violino I	*	*mI"Clarino in D	*mI"Corno II in D	*mI"Corno I in D	*mI"Clarinetto II in A	*mI"Clarinetto I in A	*	*
*I'cb	*I'vl 2	*I'vl 1	*I'vl 1	*	*I'clar in D	*I'cor 2 in D	*I'cor 1 in D	*I'cl 2 in A	*I'cl 1 in A	*	*I'fl
*Icbass	*Ivioln	*Ivioln	*Ivioln	*	*Iclno	*Icor	*Icor	*Iclars	*Iclars	*	*Iflt
*ICstr	*ICstr	*ICstr	*ICstr	*	*ICbras	*ICbras	*ICbras	*ICww	*ICww	*	*ICww
*>[A,B,A]	*>[A,B,A]	*>[A,B,A]	*>[A,B,A]	*>[A,B,A]	*>[A,B,A]	*>[A,B,A]	*>[A,B,A]	*>[A,B,A]	*>[A,B,A]	*>[A,B,A]	*>[A,B,A]
*>A	*>A	*>A	*>A	*>A	*>A	*>A	*>A	*>A	*>A	*>A	*>A
*clefF4	*clefG2	*clefG2	*clefG2	*	*clefG2	*clefG2	*clefG2	*clefG2	*clefG2	*	*clefG2
*	*	*	*	*	*ITrd-1c-2	*ITrd6c10	*ITrd6c10	*ITrd2c3	*ITrd2c3	*	*
*mk[f#]	*mk[f#]	*mk[f#]	*mk[f#]	*	*mk[f#]	*mk[f#]	*mk[f#]	*mk[f#]	*mk[f#]	*	*mk[f#]
*k[f#cn]	*k[f#cn]	*k[f#cn]	*k[f#cn]	*	*k[f#c#]	*k[f#c#]	*k[f#c#]	*k[f#]	*k[f#]	*	*k[f#cn]
*G:	*G:	*G:	*G:	*	*G:	*G:	*G:	*G:	*G:	*	*G:
*M3/4	*M3/4	*M3/4	*M3/4	*	*M3/4	*M3/4	*M3/4	*M3/4	*M3/4	*	*M3/4
=1	=1	=1	=1	=1	=1	=1	=1	=1	=1	=1	=1
!	!	!LO:MO:mod=!null:null	!	!	!	!	!	!	!LO:MO:mod=!null:null	!	!
!	!	!LO:TX:t=P:problem=przy kluczu błędnie znak an	!	!	!LO:TX:a:t=16:mod=	!LO:TX:a:t=16:mod=	!LO:TX:a:t=16:mod=	!LO:TX:a:t=14:mod=	!LO:TX:b:t=P:problem=niezrozumiały napis na dole	!LO:DY:rj	!
4D\	4r	4r	4dd\	.	2.r	0.r	0.r	2.r	4d/	p	4dd\
!	!LO:MO:mod=4d 4B/	!	!	!	!	!	!	!	!	!	!
4r	4d 4Bn/	4f#/	4r	.	.	.	.	.	4r	.	4r
4r	4d 4B/	4f#/	4ff#\	.	.	.	.	.	4f#/	.	4ff#\
=2	=2	=2	=2	=2	=2	=2	=2	=2	=2	=2	=2
4D\	4r	4r	4aa\	.	2.r	.	.	2.r	4a\	.	4aa\
4r	4d 4c/	4f#/	4r	.	.	.	.	.	4r	.	4r
!	!	!	!LO:MO:mod=4ccc\	!	!	!	!	!	!LO:MO:mod=4cc\	!	!LO:MO:mod=4ccc\
4r	4d 4c/	4f#/	4cccn\	.	.	.	.	.	4ccnX\	.	4cccn\
=3	=3	=3	=3	=3	=3	=3	=3	=3	=3	=3	=3
4G\	4r	4r	4bb\	.	2.r	.	.	2.r	4b\	.	4bb\
!	!	!	!LO:MO:mod=*2\left	!	!	!	!	!	!LO:MO:mod=*2\left	!	!LO:MO:mod=*2\left
*	*	*	*2\right	*	*	*	*	*	*2\right	*	*2\right
!	!	!	!	!	!	!	!	!	!	!	!LO:MO:mod=[2ggg\
4r	4d 4B/	4g/	[2ggg\	.	.	.	.	.	[2gg\	.	2ggg\
4r	4d 4B/	4g/	.	.	.	.	.	.	.	.	.
=4	=4	=4	=4	=4	=4	=4	=4	=4	=4	=4	=4
!	!	!	!	!	!	!	!	!	!	!	!LO:MO:mod=4ggg\]
4G\	4r	4r	4ggg\]	.	2.r	.	.	2.r	4gg\]	.	4ggg\
4r	4d 4B/	4g/	8fff#\L	.	.	.	.	.	8ff#\L	.	8fff#\L
.	.	.	8eee\J	.	.	.	.	.	8ee\J	.	8eee\J
4r	4d 4B/	4g/	4ddd\	.	.	.	.	.	4dd\	.	4ddd\
=5	=5	=5	=5	=5	=5	=5	=5	=5	=5	=5	=5
4C/	4r	4r	4eee\	.	2.r	0.r	0.r	2.r	4ee\	.	4eee\
4r	4e 4c/	4a/	4r	.	.	.	.	.	4r	.	4r
!	!	!LO:SIC:v:s=4a/	!	!	!	!	!	!	!	!	!
4r	4e 4c/	4b/	4aa\	.	.	.	.	.	4a\	.	4aa\
=6	=6	=6	=6	=6	=6	=6	=6	=6	=6	=6	=6
4D\	4r	4r	4ccc\	.	2.r	.	.	2.r	4cc\	.	4ccc\
4r	4d 4c/	4f#/	4r	.	.	.	.	.	4r	.	4r
4r	4d 4c/	4f#/	4ff#\	.	.	.	.	.	4f#\	.	4ff#\
=7	=7	=7	=7	=7	=7	=7	=7	=7	=7	=7	=7
!	!	!	!	!	!	!	!	!	!LO:MO:mod=4.a\	!	!
4G\	4r	4r	4.aa\	.	2.r	.	.	2.r	4.a^\	.	4.aa\
4r	4d 4B/	4g/	.	.	.	.	.	.	.	.	.
!	!	!	!LO:MO:mod=(8gg\L	!	!	!	!	!	!	!	!
.	.	.	8gg\L	.	.	.	.	.	(8g\L	.	(8gg\L
4r	4d 4B/	4g/	8ff#\	.	.	.	.	.	8f#\	.	8ff#\
!	!	!	!LO:MO:mod=8ee\J)	!	!	!	!	!	!	!	!
.	.	.	8ee\J	.	.	.	.	.	8e\J)	.	8ee\J)
=8	=8	=8	=8	=8	=8	=8	=8	=8	=8	=8	=8
4G\	4r	4r	4dd\	.	2.r	.	.	2.r	4d/	.	4dd\
4r	4d 4B/	4g/	4r	.	.	.	.	.	4r	.	4r
4r	4d 4B/	4g/	4dd\	.	.	.	.	.	4d/	.	4dd\
=9	=9	=9	=9	=9	=9	=9	=9	=9	=9	=9	=9
4D\	4r	4r	4dd\	.	2.r	0.r	0.r	2.r	4d/	.	4dd\
4r	4d 4c/	4f#/	4r	.	.	.	.	.	4r	.	4r
4r	4d 4c/	4f#/	4ff#\	.	.	.	.	.	4f#/	.	4ff#\
!	!	!LO:LB:g=original	!LO:LB:g=original	!	!	!	!	!	!	!	!LO:LB:g=original
=10	=10	=10	=10	=10	=10	=10	=10	=10	=10	=10	=10
4D\	4r	4r	4aa\	.	2.r	.	.	2.r	4a\	.	4aa\
4r	4d 4c/	4f#/	4r	.	.	.	.	.	4r	.	4r
!	!	!	!LO:MO:mod=4ccc\	!	!	!	!	!	!	!	!
4r	4d 4c/	4f#/	4cccn\	.	.	.	.	.	4cc\	.	4ccc\
!	!LO:LB:g=original	!	!	!	!	!	!	!	!	!	!
=11	=11	=11	=11	=11	=11	=11	=11	=11	=11	=11	=11
4G\	4r	4r	4bb\	.	2.r	.	.	2.r	4b\	.	4bb\
4r	4d 4B/	4g/	4r	.	.	.	.	.	4r	.	4r
4r	4d 4B/	4g/	4ggg\	.	.	.	.	.	4ggM\	.	4ggg\
!LO:LB:g=original	!	!	!	!	!	!	!	!	!LO:LB:g=original	!	!
=12	=12	=12	=12	=12	=12	=12	=12	=12	=12	=12	=12
4C/	4r	4r	4aa\	.	2.r	.	.	2.r	4a\	.	4aa\
4r	4e 4c/	4a/	4r	.	.	.	.	.	4r	.	4r
4r	4e 4c/	4a/	4eee\	.	.	.	.	.	4eeM\	.	4eee\
=13	=13	=13	=13	=13	=13	=13	=13	=13	=13	=13	=13
4D\	4r	4r	4gg\	.	2.r	0.r	0.r	2.r	4g\	.	4gg\
4r	4d 4B/	4g/	4r	.	.	.	.	.	4r	.	4r
4r	4d 4B/	4g/	4ddd\	.	.	.	.	.	4dd\	.	4ddd\
=14	=14	=14	=14	=14	=14	=14	=14	=14	=14	=14	=14
4D\	4r	4r	4ff#\	.	2.r	.	.	2.r	4f#\	.	4ff#\
4r	4e 4c/	4f#/	4r	.	.	.	.	.	4r	.	4r
4r	4e 4c/	4f#/	4ddd\	.	.	.	.	.	4dd\	.	4ddd\
=15	=15	=15	=15	=15	=15	=15	=15	=15	=15	=15	=15
!	!	!	!	!LO:DY:b=2:rj	!	!	!	!	!	!	!
4GG/	4d 4B/	(8g/L	4gg\	f	2.r	.	.	4g\	4b\	.	4gg\
.	.	8b/)	.	.	.	.	.	.	.	.	.
4G\	4d 4B/	(8d/	4bb\	.	.	.	.	4g\	4b\	.	4bb\
.	.	8g/)	.	.	.	.	.	.	.	.	.
4G\	4d 4B/	(8B/	4ddd\	.	.	.	.	4g\	4b\	.	4ddd\
.	.	8d/J)	.	.	.	.	.	.	.	.	.
=16	=16	=16	=16	=16	=16	=16	=16	=16	=16	=16	=16
!	!	!	!	!	!	!	!	!LO:MO:mod=*2\left	!	!	!
*	*	*	*	*	*	*	*	*2\right	*	*	*
4G\	2d 2B/	2g 2B/	2ggg\	.	2.r	.	.	2g\	2b\	.	2ggg\
4GG/	.	.	.	.	.	.	.	.	.	.	.
!LO:TX:a:t=Fine:mod=	!LO:TX:a:t=Fine:mod=	!	!LO:TX:a:t=Fine:mod=	!	!LO:TX:a:t=Fine:mod=	!LO:TX:a:t=Fine:mod=	!	!LO:TX:a:t=Fine:mod=	!LO:MO:mod=4r	!	!LO:TX:a:t=Fine:mod=
4r	4r	4r	4r	.	.	.	.	4r	4r;	.	4r
!!LO:TX:a:B:rj:t=:mod=Fine
!	!	!LO:MO:mod==17||;	!	!	!	!	!LO:MO:mod==17||;	!LO:MO:mod==17||;	!LO:MO:mod==17||;	!	!
=17||;	=17||;	=17||	=17||;	=17||	=17||;	=17||;	=17||	=17||	=17||	=17||	=17||;
*>B	*>B	*>B	*>B	*>B	*>B	*>B	*>B	*>B	*>B	*>B	*>B
!	!	!	!	!LO:DY:rj	!	!	!	!LO:TX:a:t=1:mod=	!LO:TX:a:t=1:mod=	!	!LO:TX:a:t=4:mod=
4D\	4r	2.ryy	(8a\L	ff	4r	4r	4r	2.r	2.r	.	0.r
.	.	.	8ff#\)	.	.	.	.	.	.	.	.
4d\	4a 4f#/	.	8ff#'\	.	4a/	4d\	4f#\	.	.	.	.
.	.	.	8ff#'\J	.	.	.	.	.	.	.	.
!	!	!	!LO:MO:mod=4ff#'\	!	!	!	!	!	!	!	!
4d\	4a 4f#/	.	4ryy	.	4a/	4d\	4f#\	.	.	.	.
=18	=18	=18	=18	=18	=18	=18	=18	=18	=18	=18	=18
!	!	!	!LO:MO:mod=(2ff#^<\	!	!	!	!	!	!LO:MO:mod=(2ff#^\	!	!
4AA/	4a 4g/	2.ryy	2ff#^<\	.	4r	4r	4r	2.g^\	2ff#\	.	.
4A\	4a 4g/	.	.	.	4A/	4A\	4e\	.	.	.	.
!	!	!	!LO:MO:mod=4ee\)	!	!	!	!	!	!LO:MO:mod=4ee\)	!	!
4A\	4a 4g/	.	4ee\	.	4A/	4A\	4e\	.	4ee\	.	.
=19	=19	=19	=19	=19	=19	=19	=19	=19	=19	=19	=19
*	*rep	*	*	*	*rep	*	*	*	*	*	*
!	!	!	!	!	!	!	!	!LO:TX:a:t=1:mod=	!LO:TX:a:t=1:mod=	!	!
4AA/	4a 4g/	2.ryy	(8a\L	.	4r	4r	4r	2.r	2.r	.	.
.	.	.	8ee\)	.	.	.	.	.	.	.	.
4A\	4a 4g/	.	8ee'\	.	4A/	4A\	4e\	.	.	.	.
.	.	.	8ee'\J	.	.	.	.	.	.	.	.
!	!	!	!LO:MO:mod=4ee'\	!	!	!	!	!	!	!	!
4A\	4a 4g/	.	4ee\	.	4A/	4A\	4e\	.	.	.	.
*	*Xrep	*	*	*	*Xrep	*	*	*	*	*	*
=20	=20	=20	=20	=20	=20	=20	=20	=20	=20	=20	=20
!	!	!	!LO:MO:mod=(2ee^\	!	!	!	!	!	!LO:MO:mod=(2ee^\	!	!
4D\	4a 4f#/	2.ryy	2ee\	.	4r	4r	4r	2.f#^\	(2ee\	.	.
4d\	4a 4f#/	.	.	.	4d/	4F#/	4d\	.	.	.	.
!	!	!	!LO:MO:mod=4dd\)	!	!	!	!	!	!	!	!
4d\	4a 4f#/	.	4dd\	.	4d/	4F#/	4d\	.	4dd\)	.	.
=21	=21	=21	=21	=21	=21	=21	=21	=21	=21	=21	=21
!	!	!	!	!	!	!	!	!LO:TX:a:t=1:mod=	!LO:TX:a:t=1:mod=	!	!
4A\	4g 4A/	2.ryy	(8c#X/L	.	4A/	4r	4r	2.r	2.r	.	(8cc#X\L
.	.	.	8b/)	.	.	.	.	.	.	.	8bb\J)
4r	4g 4A/	.	8b'/	.	4r	4A/	4e\	.	.	.	4bb'\
.	.	.	8b'/J	.	.	.	.	.	.	.	.
!	!	!	!LO:MO:mod=4b'/	!	!	!	!	!	!	!	!
4r	4g 4A/	.	4b/	.	4r	4A/	4e\	.	.	.	4bb'\
!	!LO:LB:g=original	!	!	!	!	!	!	!	!	!	!
=22	=22	=22	=22	=22	=22	=22	=22	=22	=22	=22	=22
!	!	!	!	!	!	!	!	!LO:SIC:v:s=2.B^>/	!	!	!
4AA/	4g 4A/	2.ryy	2b/	.	4A/	4r	4r	2.c^>/	2b\	.	2bb\
4r	4g 4A/	.	.	.	4r	4A/	4e\	.	.	.	.
4r	4g 4A/	.	8a/L	.	4r	4A/	4e\	.	8a\L	.	8aa\L
.	.	.	8g/J	.	.	.	.	.	8g\J	.	8gg\J
=23	=23	=23	=23	=23	=23	=23	=23	=23	=23	=23	=23
4D\	4f# 4A/	2.ryy	4.g/	.	4d/	4r	4r	2d/	4.g\	.	4.gg\
4r	4f# 4A/	.	.	.	4r	4F#/	4d\	.	.	.	.
.	.	.	8f#/L	.	.	.	.	.	8f#\L	.	8ff#\L
4r	4f# 4A/	.	8a/	.	4r	4F#/	4d\	4r	8a\	.	8aa\
.	.	.	8f#/J	.	.	.	.	.	8f#\J	.	8ff#\J
!LO:LB:g=original	!	!	!	!	!	!	!	!	!	!	!LO:LB:g=original
=24	=24	=24	=24	=24	=24	=24	=24	=24	=24	=24	=24
*	*rep	*	*	*	*	*	*	*	*	*	*
4D\	4f# 4A/	2.ryy	2d/	.	4d/	4r	4r	2d/	2d/	.	2dd\
4r	4f# 4A/	.	.	.	4r	4A/	4e\	.	.	.	.
4r	4f# 4A/	.	4a/	.	4r	4F#/	4d\	4r	4r	.	4r
*	*Xrep	*	*	*	*	*	*	*	*	*	*
!	!	!	!LO:LB:g=original	!	!LO:LB:g=original	!LO:LB:g=original	!LO:LB:g=original	!	!LO:LB:g=original	!	!
=25	=25	=25	=25	=25	=25	=25	=25	=25	=25	=25	=25
!	!	!	!	!	!	!	!	!LO:TX:a:t=1:mod=	!LO:TX:a:t=1:mod=	!	!LO:TX:a:t=4:mod=
4AA/	4a 4g/	2.ryy	(8a\L	.	4A/	4r	4r	2.r	2.r	.	0.r
.	.	.	8ff#\)	.	.	.	.	.	.	.	.
4A\	4a 4g/	.	8ff#'\	.	8a/L	4A/	4e\	.	.	.	.
.	.	.	8ff#'\J	.	8a/J	.	.	.	.	.	.
!	!	!	!LO:MO:mod=4ff#'\	!	!	!	!	!	!	!	!
4A\	4a 4g/	.	4ryy	.	4a/	4A/	4e\	.	.	.	.
=26	=26	=26	=26	=26	=26	=26	=26	=26	=26	=26	=26
*	*rep	*	*	*	*	*	*	*	*	*	*
!	!	!	!LO:MO:mod=(2ff#^\	!	!	!	!	!	!	!	!
4A\	4a 4g/	2.ryy	2ff#\	.	4a/	4r	4r	2.g^\	(2ff#^\	.	.
4A\	4a 4g/	.	.	.	4r	4A/	4e\	.	.	.	.
!	!	!	!LO:MO:mod=4ee\)	!	!	!	!	!	!	!	!
4A\	4a 4g/	.	4ee\	.	4r	4A/	4e\	.	4ee\)	.	.
*	*Xrep	*	*	*	*	*	*	*	*	*	*
!	!	!	!	!	!	!	!	!LO:LB:g=original	!	!	!
=27	=27	=27	=27	=27	=27	=27	=27	=27	=27	=27	=27
!	!	!	!	!	!	!	!	!LO:MO:mod=!null:null	!	!	!
!	!	!	!	!	!	!	!	!LO:TX:t=P:problem:brak taktu	!LO:TX:a:t=1:mod=	!	!
!	!	!	!	!	!	!	!	!LO:MO:mod=2.r	!	!	!
4D\	4a 4f#/	2.ryy	(8a\L	.	4d/	4r	4r	2.ryy	2.r	.	.
.	.	.	8ee\)	.	.	.	.	.	.	.	.
4D\	4a 4f#/	.	8ee'\	.	8d/L	4d\	4f#\	.	.	.	.
.	.	.	8ee'\J	.	8d/J	.	.	.	.	.	.
!	!	!	!LO:MO:mod=4ee'\	!	!	!	!	!	!	!	!
4D\	4a 4f#/	.	4ee\	.	4d/	4d\	4f#\	.	.	.	.
=28	=28	=28	=28	=28	=28	=28	=28	=28	=28	=28	=28
*	*rep	*	*	*	*	*	*	*	*	*	*
!	!	!	!LO:MO:mod=(2ee^\	!	!	!	!	!	!LO:MO:mod=(2ee^\	!	!
4D\	4a 4f#/	2.ryy	2ee\	.	4d/	4r	4r	2.f#^>/	2ee^\	.	.
4r	4a 4f#/	.	.	.	4r	4d\	4f#\	.	.	.	.
!	!	!	!LO:MO:mod=4dd\)	!	!	!	!	!	!LO:MO:mod=4dd\)	!	!
4r	4a 4f#/	.	4dd\	.	4r	4d\	4f#\	.	4dd\	.	.
*	*Xrep	*	*	*	*	*	*	*	*	*	*
=29	=29	=29	=29	=29	=29	=29	=29	=29	=29	=29	=29
!	!	!	!	!	!	!	!	!LO:TX:a:t=1:mod=	!LO:TX:a:t=1:mod=	!	!LO:MO:mod=(8aa\L
4AA/	4a 4g/	2.ryy	(8a\L	.	4A/	4r	4r	2.r	2.r	.	8aa\L
!	!	!	!	!	!	!	!	!	!	!	!LO:MO:mod=8ddd\)
.	.	.	8dd\)	.	.	.	.	.	.	.	8ddd\
!	!	!	!	!	!	!	!	!	!	!	!LO:MO:mod=8ddd'\
4r	4a 4g/	.	8dd'\	.	8a/L	4A\	4e\	.	.	.	8ddd\
!	!	!	!	!	!	!	!	!	!	!	!LO:MO:mod=8ddd'\J
.	.	.	8dd'\J	.	8a/J	.	.	.	.	.	8ddd\J
!	!	!	!LO:SIC:v:s=4cc#\	!	!	!	!	!	!	!	!LO:SIC:v:s=4ccc#\
!	!	!	!LO:MO:mod=4cc#'\	!	!	!	!	!	!	!	!LO:MO:mod=4ccc#'\
4r	4a 4g/	.	4cc\	.	4a/	4A\	4e\	.	.	.	4ccc\
=30	=30	=30	=30	=30	=30	=30	=30	=30	=30	=30	=30
*	*rep	*	*	*	*	*	*	*	*	*	*
!	!	!	!LO:MO:mod=(2bb^\	!	!	!	!	!	!	!	!LO:MO:mod=(2bb^\
4A\	4a 4g/	2.ryy	2bb\	.	4a/	4r	4r	2.cc\	2.ee\	.	2bb\
4r	4a 4g/	.	.	.	4r	4A\	4e\	.	.	.	.
!	!	!	!LO:MO:mod=4aa\)	!	!	!	!	!	!	!	!LO:MO:mod=4aa\)
4r	4a 4g/	.	4aa\	.	4r	4A\	4e\	.	.	.	4aa\
*	*Xrep	*	*	*	*	*	*	*	*	*	*
=31	=31	=31	=31	=31	=31	=31	=31	=31	=31	=31	=31
4D\	4a 4f#/	2.ryy	4.ff#\	.	4d/	4d\	4f#\	4dd\	4ff#\	.	4.ff#\
!	!LO:SIC:v:n=1:s=4f#	!	!	!	!	!	!	!	!	!	!
4F#\	4g 4A/	.	.	.	4d/	4F#/	4d\	4f#/	4dd\	.	.
.	.	.	8dd/L	.	.	.	.	.	.	.	8ddd\L
!	!LO:SIC:v:n=1:s=4f#	!	!	!	!	!	!	!	!	!	!
4A\	4g 4A/	.	8a/	.	4d/	4F#/	4d\	4f#/	4dd\	.	8aa\
.	.	.	8f#/J	.	.	.	.	.	.	.	8ff#\J
=32	=32	=32	=32	=32	=32	=32	=32	=32	=32	=32	=32
!	!	!	!	!	!	!	!LO:MO:mod=*2\left	!	!	!	!
*	*	*	*	*	*	*	*2\right	*	*	*	*
4d\	2f# 2A/	2.ryy	2d/	.	2d/	2F#/	2d\	2f#/	2dd\	.	2dd\
4D\	.	.	.	.	.	.	.	.	.	.	.
!LO:TX:b:rj:t=Da Capo al Fine:mod=	!LO:TX:b:rj:t=Da Capo \nal Fine:mod=	!	!LO:TX:b:i:rj:t=Da Capo \nal Fine:mod=	!	!LO:TX:b:rj:t=Da Capo \nal Fine:mod=	!LO:TX:b:rj:t=Da Capo \nal Fine:mod=	!LO:TX:b:i:rj:t=Da Capo \nal Fine:mod=	!LO:TX:b:rj:t=Da Capo al Fine:mod=	!LO:TX:b:rj:t=Da Capo Al Fine:mod=	!	!LO:TX:b:i:t=Da Capo al Fine:mod=
4r	4r	.	4r	.	4r	4r	4r	4r	4r	.	4r
!!LO:TX:a:B:t=:mod=Da Capo al Fine
==	==	==	==	==	==	==	==	==	==	==	==
*-	*-	*-	*-	*-	*-	*-	*-	*-	*-	*-	*-
!!!system-decoration: [(s1,s2,s3)][(s4,s5,s6)][({s7,s8}s9,s10)]
!!!RDF**kern: > = above
!!!RDF**kern: < = below
!!!filter-modern: sic -sq | shed -e "s/:rj/:RJ/L" | modori -m | autostem -r | tie -s | shed -k -e "s/[<>]//g" | shed -e "s/^(X?)rep$/$1REP/I"
!!!ENC: Marcin Jachim
!!!END: 2020-10-03
!!!ENC: Marta Lawrence
!!!END: 2021-11-01
!!!ENC-modern: Marta Lawrence
!!!END-modern: 2022-06-08
